src/assets/icons/eyeInput.svg

<svg width="20" height="16" viewBox="0 0 20 16" fill="none" xmlns="http://www.w3.org/2000/svg">
<path d="M10 0C12.0683 0 14.0293 0.717576 15.7366 2.04606C17.4439 3.36485 18.8976 5.29455 19.9415 7.70909C20.0195 7.89333 20.0195 8.10667 19.9415 8.28121C17.8537 13.1103 14.1366 16 10 16H9.99024C5.86341 16 2.14634 13.1103 0.0585366 8.28121C-0.0195122 8.10667 -0.0195122 7.89333 0.0585366 7.70909C2.14634 2.88 5.86341 0 9.99024 0H10ZM10 4.12121C7.8439 4.12121 6.09756 5.85697 6.09756 8C6.09756 10.1333 7.8439 11.8691 10 11.8691C12.1463 11.8691 13.8927 10.1333 13.8927 8C13.8927 5.85697 12.1463 4.12121 10 4.12121ZM10.0012 5.57362C11.3378 5.57362 12.4304 6.65968 12.4304 7.99787C12.4304 9.32635 11.3378 10.4124 10.0012 10.4124C8.65483 10.4124 7.56215 9.32635 7.56215 7.99787C7.56215 7.83302 7.58166 7.67787 7.61093 7.52272H7.65971C8.74263 7.52272 9.62068 6.66938 9.65971 5.60272C9.76702 5.58332 9.8841 5.57362 10.0012 5.57362Z" fill="url(#paint0_linear_438_274)"/>
<defs>
<linearGradient id="paint0_linear_438_274" x1="0" y1="8" x2="20" y2="8" gradientUnits="userSpaceOnUse">
<stop stop-color="#3A281B" stop-opacity="0.76"/>
<stop offset="0.188034" stop-color="#5E4737" stop-opacity="0.93"/>
<stop offset="0.355" stop-color="#6A513F"/>
<stop offset="0.52" stop-color="#6A513F"/>
<stop offset="0.65" stop-color="#6A513F"/>
<stop offset="0.845" stop-color="#5E4737" stop-opacity="0.93"/>
<stop offset="1" stop-color="#3A281B" stop-opacity="0.76"/>
</linearGradient>
</defs>
</svg>

<svg xmlns="http://www.w3.org/2000/svg" width="20" height="16" fill="none"><path fill="url(#a)" d="M10 0c2.068 0 4.03.718 5.737 2.046 1.707 1.319 3.16 3.249 4.205 5.663a.729.729 0 0 1 0 .572C17.854 13.111 14.137 16 10 16h-.01C5.863 16 2.146 13.11.06 8.281a.728.728 0 0 1 0-.572C2.146 2.88 5.863 0 9.99 0H10Zm0 4.121C7.844 4.121 6.098 5.857 6.098 8c0 2.133 1.746 3.87 3.902 3.87 2.146 0 3.893-1.737 3.893-3.87A3.888 3.888 0 0 0 10 4.121Zm.001 1.453a2.43 2.43 0 0 1 2.43 2.424A2.428 2.428 0 0 1 10 10.412c-1.346 0-2.439-1.086-2.439-2.414 0-.165.02-.32.049-.475h.049a1.997 1.997 0 0 0 2-1.92c.107-.02.224-.03.341-.03Z"/><defs><linearGradient id="a" x1="0" x2="20" y1="8" y2="8" gradientUnits="userSpaceOnUse"><stop stop-color="#3A281B" stop-opacity=".76"/><stop offset=".188" stop-color="#5E4737" stop-opacity=".93"/><stop offset=".355" stop-color="#6A513F"/><stop offset=".52" stop-color="#6A513F"/><stop offset=".65" stop-color="#6A513F"/><stop offset=".845" stop-color="#5E4737" stop-opacity=".93"/><stop offset="1" stop-color="#3A281B" stop-opacity=".76"/></linearGradient></defs></svg>
